X: 41
T: la Bastringe #2
O: Qu\'ebec
R: reel
Z: John Chambers <jc:trillian.mit.edu>
M: C|
L: 1/8
K: D
|: "D"f2ff f2gf | "A7"e2c2 "D"d4 | "A7"c2d2 efec | "D"d2e2 f2d2 | "D"f2ff f2gf |
| "A7"e2c2 "D"d4 | "G"g2f2 efed | "A7"B2c2 "D"d4 :: "D"D2FA dAFD | "C"=C2EG cGEC | "D"D2FA dAde |
| "A7"fedc dcBA | "D"D2FA dAFD | "C"=C2EG cGEC | "D"D2FA dAde | "A7"fedc "D"d4 :|

%%sep 1 1 500

